X: 18097
T: Humours Of Ballyloughlin, The
R: jig
M: 6/8
K: Dmixolydian
|:Ac/A/A AGE|GED D3|(c3 c)Ad|dcA {FG} GEA|
DE/F/G AGE|Gc/A/G cGE|DAD DFA|GEA DE/F/G:|
|:A/c/AD AGE|GED D3|cAd cAd|d^cA GEA|
DE/F/G AGE|G2c FGE|DAD DFA|GEA DAA|
|:c3 cAB|cAG AB^c|d_ed df/g/d|dcA AGF|
cde dcB|cAG FGE|DAD DFA|GEA DAA||
|:cAA cAA|cAG AB^c|ded f3|fed AGF|
c2e dcB|cAG FGD|D3 DFA|GEA DAE||
|:fdd GEd|f3 ged|B/c/de ged|=cde ged|
dF/G/d ged|faf ged|B/c/de gag|ed^c d2e||
|:f3 g3|efa ged|cde g3|cde ged|
df/g/d ged|fc/a/f ged|B/c/de gag|ed^c dE/F/G||
|:A3 ABG|F3 G/F/ED|^D2E EF=D|EFD EFG|
A3 dAG|FAF GEA|D3 DFA|DFA dE/F/g||
|:A/^c/AD ABG|F3 G/F/ED|^D2E FG2|BAG dB^G|
A^ed cAG|FAF GEA|F3 FAE|DFA dE/F/G||

